li/weather-raindrops.svg

<svg role="img" focusable="false" aria-hidden="true" xmlns="http://www.w3.org/2000/svg" viewBox="0 0 14 14" height="1em" width="1em">
  <path d="m 2.669991,5.841342 c 0,-0.282865 0.141432,-0.641886 0.413418,-1.098822 C 3.355394,4.285585 3.62738,3.9048051 3.877607,3.6110607 3.942887,3.5349047 4.029918,3.4261106 4.127833,3.306437 4.225753,3.1867634 4.291025,3.1214869 4.301904,3.1106074 l 0.402538,0.4678151 c 0.304624,0.337262 0.57661,0.7180415 0.826836,1.1640975 0.250227,0.446057 0.38078,0.805077 0.38078,1.098822 0,0.446056 -0.152312,0.837715 -0.467815,1.153218 C 5.139619,7.310063 4.75884,7.473255 4.301904,7.473255 3.855848,7.473255 3.464189,7.310063 3.148685,6.99456 2.833182,6.668178 2.669991,6.287398 2.669991,5.841342 Z m 3.394379,4.514959 c 0,-0.315503 0.08704,-0.674524 0.261106,-1.098821 C 6.499547,8.844062 6.717135,8.452403 6.978241,8.104261 7.478695,7.440617 7.94651,6.885766 8.403445,6.43971 8.446965,6.40707 8.544878,6.320036 8.68631,6.178604 L 8.958296,6.43971 c 0.424297,0.402538 0.902991,0.957389 1.436083,1.653672 0.282865,0.3699 0.500453,0.761559 0.674524,1.174977 0.174071,0.413418 0.261106,0.772439 0.261106,1.087942 0,0.75068 -0.250227,1.370807 -0.761559,1.88214 C 10.057117,12.749773 9.426111,13 8.68631,13 7.94651,13 7.326383,12.738894 6.81505,12.227561 6.303717,11.716228 6.06437,11.085222 6.06437,10.356301 Z M 7.718042,2.8495014 C 7.718042,2.3816863 8.077063,1.7615594 8.805984,1 l 0.271985,0.3046238 c 0.206709,0.2393472 0.391659,0.5004533 0.554851,0.805077 0.163191,0.2937443 0.250226,0.543971 0.250226,0.7398006 0,0.3046237 -0.108794,0.5439709 -0.315503,0.7506799 -0.206709,0.1958296 -0.456935,0.3046238 -0.761559,0.3046238 -0.315503,0 -0.57661,-0.097915 -0.783318,-0.3046238 C 7.826836,3.3934723 7.718042,3.1432457 7.718042,2.8495014 Z"/>
</svg>

<svg aria-hidden="true" xmlns="http://www.w3.org/2000/svg" viewBox="0 0 14 14" height="1em" width="1em">
  <path d="M2.67 5.841c0-.283.141-.642.413-1.098a8.3 8.3 0 0 1 .795-1.132c.065-.076.152-.185.25-.305s.163-.185.174-.195l.402.467c.305.338.577.718.827 1.165.25.446.381.805.381 1.098 0 .446-.152.838-.468 1.154a1.527 1.527 0 0 1-1.142.478c-.446 0-.838-.163-1.153-.478A1.604 1.604 0 0 1 2.67 5.84Zm3.394 4.515c0-.315.087-.674.261-1.099.175-.413.392-.805.653-1.153.5-.663.969-1.218 1.425-1.664a3.36 3.36 0 0 0 .283-.261l.272.26c.425.403.903.958 1.436 1.654.283.37.5.762.675 1.175.174.414.261.773.261 1.088 0 .751-.25 1.371-.762 1.882-.51.512-1.142.762-1.882.762s-1.36-.261-1.87-.772c-.512-.512-.752-1.143-.752-1.872ZM7.718 2.85c0-.468.36-1.088 1.088-1.85l.272.305c.207.239.392.5.555.805.163.293.25.544.25.74 0 .304-.109.543-.315.75a1.068 1.068 0 0 1-.762.305c-.316 0-.577-.098-.783-.305a1.062 1.062 0 0 1-.305-.75Z"/>
</svg>
